src/modules/31-filestore/images/root-folder.svg

<svg fill="none" height="24" viewBox="0 0 24 24" width="24" xmlns="http://www.w3.org/2000/svg"><g stroke="#0278d5" stroke-linecap="round"><path d="m4 4h6l2 3h8v2.4545h3l-3 10.5455h-16 16l3-10.5455h-16l-3 10.5455z" stroke-linejoin="round"/><path d="m13 4h7" opacity=".3" stroke-linejoin="round"/><path d="m9.75 17.25v-3.5795l3.5526-1.6705 3.9474 1.6705v3.5795"/><path d="m12 17.25v-1.5341l1.4211-.7159 1.5789.7159v1.5341"/></g></svg>

<svg width="24" height="24" viewBox="0 0 24 24" fill="none" xmlns="http://www.w3.org/2000/svg">
<path d="M4 4H10L12 7H20V9.4545H23L20 20H4H20L23 9.4545H7L4 20V4Z" stroke="#0278D5" stroke-linecap="round" stroke-linejoin="round"/>
<path opacity="0.3" d="M13 4H20" stroke="#0278D5" stroke-linecap="round" stroke-linejoin="round"/>
<path d="M9.75 17.25V13.6705L13.3026 12L17.25 13.6705V17.25" stroke="#0278D5" stroke-linecap="round"/>
<path d="M12 17.25V15.7159L13.4211 15L15 15.7159V17.25" stroke="#0278D5" stroke-linecap="round"/>
</svg>
